X:1
T:Title
%%score { ( 1 4 ) | ( 2 3 ) }
L:1/8
M:6/8
K:Bb
V:1 treble nm="Grand Piano"
V:4 treble 
V:2 bass 
V:3 bass 
V:1
 z3 z2[Q:1/4=108] [DF] | [DFd]>[Ec][DB] [B,GB]>[FA][EG] | [F,DF]2 [D,B,D][K:treble] [F,DF]2 [DB] | %3
 [EA]3 [EF]2 [Ec] | [DB]3 [DF]2 [DF] | [DFd]>[Ec][DB] [B,GB]>[FA][EG] | %6
 [F,DF]2 [D,B,D][K:treble] [F,DF]2 [DF] | [CFA]3 [=Ec]2 [Ec] |[M:5/8] [Fc]-[Fc]- [Fc]3 | %9
[M:1/8] [A,EF] |[M:3/4] D2- [DB] [Fd]2 [Fc] | [EGB]2 [EG] [EGB]2 [B,EG] | [DF]2 [DF]B AB | %13
[M:5/8] d3 c2 |[M:1/8] [A,EF] |[M:3/4] D2- [DB] [Fd]2 [Fc] |[M:7/8] [EGB]2 [EG] [EGB]3 G | %17
[M:3/4] F2 B d2 c |[M:5/8] [DB]-[DB]- [DB]3 |] %19
V:2
 z3 z2 F, | z z/ C/B, z z/ A,/G, | B,,2 B,, B,,2 [B,,F,] | [C,F,]3 [F,A,]2 [F,A,] | %4
 [B,,B,]3 [B,,B,]2 F, | z z/ C/B, z z/ A,/G, | B,,2 B,, B,,2 B,, | C,3 [C,B,]2 [C,B,] | %8
[M:5/8] [F,A,]-[F,A,]- [F,A,]3 |[M:1/8] F, |[M:3/4] z2 F, [B,,B,]2 [D,B,] | z2 B, E,2 E, | %12
 [B,,B,]2 [B,,B,][G,B,D] [^F,CD][G,B,=E] |[M:5/8] [F,F]3- [F,A,F]2 |[M:1/8] F, | %15
[M:3/4] z2 F, [B,,B,]2 [D,B,] |[M:7/8] z2 B, E,3 [E,B,E] |[M:3/4] [F,B,D]2 [F,B,D] [F,B,F]2 [F,E] | %18
[M:5/8] [B,,F,]-[B,,F,]- [B,,F,]3 |] %19
V:3
 x6 | B,,3 E,3 | x6 | x6 | x6 | B,,3 E,3 | x6 | x6 |[M:5/8] x5 |[M:1/8] x |[M:3/4] B,,4 z2 | %11
 E,4 z2 | x6 |[M:5/8] B,3 z2 |[M:1/8] x |[M:3/4] B,,4 z2 |[M:7/8] E,3 z z z2 |[M:3/4] x6 | %18
[M:5/8] x5 |] %19
V:4
 x6 | x6 | x3[K:treble] x3 | x6 | x6 | x6 | x3[K:treble] x3 | x6 |[M:5/8] x5 |[M:1/8] x | %10
[M:3/4] [B,F]2 z2 z2 | x6 | x6 |[M:5/8] x5 |[M:1/8] x |[M:3/4] [B,F]2 z2 z2 |[M:7/8] x7 | %17
[M:3/4] x6 |[M:5/8] x5 |] %19

